apps/www/public/images/logos/publicity/archive/krea.svg

<svg width="97" height="28" viewBox="0 0 97 28" fill="none" xmlns="http://www.w3.org/2000/svg">
<path d="M85.8689 5.30539H90.1677L96.4329 21.883H92.1798L91.1738 18.9334H84.7714L83.7881 21.883H79.6266L85.8689 5.30539ZM85.846 15.755H90.1219L87.9954 9.44408L85.846 15.755Z" fill="#B4B4B4"/>
<path d="M65.8594 5.30539H78.5728V8.73525H69.7695V11.6392H78.0926V15.0919H69.7695V18.4303H78.5728V21.883H65.8594V5.30539Z" fill="#B4B4B4"/>
<path d="M55.7138 15.6407H53.0614V21.883H49.1514V5.30539H55.5309C56.4455 5.30539 57.2611 5.35112 57.9775 5.44258C58.694 5.53405 59.3724 5.69411 60.0126 5.92276C60.6681 6.15142 61.2092 6.4563 61.6361 6.83739C62.0781 7.21849 62.4211 7.71391 62.665 8.32366C62.9242 8.91817 63.0537 9.61939 63.0537 10.4273C63.0537 12.6377 61.9714 14.162 59.8068 15.0005L63.8998 21.883H59.3038L55.7138 15.6407ZM53.0614 8.59805V12.348H55.6452C56.6971 12.348 57.505 12.2185 58.069 11.9593C58.633 11.6849 58.915 11.1895 58.915 10.473C58.915 9.75658 58.6254 9.26878 58.0461 9.00963C57.4821 8.73525 56.6818 8.59805 55.6452 8.59805H53.0614Z" fill="#B4B4B4"/>
<path d="M36.532 11.8678L42.5457 5.30539H47.3246L41.1966 11.9136L47.6448 21.883H42.9344L38.4527 14.8861L36.532 16.9898V21.883H32.622V5.30539H36.532V11.8678Z" fill="#B4B4B4"/>
<path d="M4.74183 0.960377C6.91171 0.807634 8.82616 2.3184 9.10552 4.40384C9.37074 6.38492 8.01488 8.30097 5.97762 8.74961C5.46701 8.86203 4.8995 8.83078 4.35913 8.89933C3.04415 9.06636 1.91815 9.61514 0.981166 10.5457L0.971444 10.5507L0.960457 10.5498L0.951792 10.5432L0.948277 10.5331C0.947933 10.5257 0.949838 10.5191 0.954016 10.5134C0.95994 10.505 0.96289 10.4958 0.96289 10.4857C0.95001 8.94923 0.946016 7.08896 0.950883 4.9049C0.955061 2.84114 2.58557 1.11161 4.74183 0.960377Z" fill="#B4B4B4"/>
<path d="M4.97014 18.2129C2.20825 18.1912 0.228464 15.4737 1.18912 12.9276C1.71905 11.5221 3.02742 10.4973 4.57805 10.336C5.0495 10.2871 5.61597 10.2997 6.07072 10.215C8.40601 9.78097 10.2099 7.99497 10.5749 5.72102C10.6557 5.21641 10.6135 4.61503 10.7326 4.07969C11.2839 1.60207 14.1229 0.211782 16.5074 1.33188C17.7505 1.91663 18.5838 3.02059 18.79 4.3393C18.8325 4.60982 18.8462 4.94487 18.8312 5.34445C18.5608 12.5237 12.4293 18.2724 4.97014 18.2129Z" fill="#B4B4B4"/>
<path d="M8.4486 19.3555C8.43607 19.3497 8.42759 19.3413 8.42304 19.3303L8.42193 19.3233L8.4239 19.3165L8.42845 19.3111C8.43041 19.3096 8.43263 19.3086 8.43509 19.308C11.2686 18.6595 13.7236 17.3547 15.7998 15.3937C15.837 15.3584 15.871 15.3611 15.9016 15.4018C16.2346 15.8403 16.5824 16.3117 16.8612 16.7618C18.0066 18.6109 18.6557 20.6136 18.8081 22.7702C18.8387 23.205 18.8483 23.5409 18.8368 23.7779C18.734 25.8734 16.9803 27.564 14.7696 27.5767C12.8123 27.5872 11.0915 26.2519 10.7197 24.3838C10.6321 23.9417 10.6591 23.3291 10.5845 22.8619C10.3541 21.4242 9.65158 20.2606 8.47687 19.3711C8.47159 19.3666 8.46225 19.3615 8.4486 19.3555Z" fill="#B4B4B4"/>
<path d="M4.30792 27.5164C2.64557 27.227 1.30796 25.9361 1.01036 24.33C0.969635 24.1102 0.949282 23.7753 0.949282 23.3254C0.948926 21.554 0.948582 19.7825 0.948238 18.0107C0.948238 17.9932 0.95485 17.9904 0.968074 18.0021C2.05507 18.9685 3.19743 19.5588 4.68958 19.6571C4.68958 19.6571 4.82462 19.6618 5.09055 19.6701C7.03326 19.7322 8.67892 21.0055 9.05845 22.855C9.62023 25.5897 7.14448 28.0099 4.30792 27.5164Z" fill="#B4B4B4"/>
</svg>

<svg xmlns="http://www.w3.org/2000/svg" width="97" height="28" fill="none" viewBox="0 0 97 28"><path fill="#b4b4b4" d="M85.869 5.305h4.299l6.265 16.578H92.18l-1.006-2.95H84.77l-.983 2.95h-4.161zm-.023 10.45h4.276l-2.127-6.31zM65.86 5.305h12.713v3.43H69.77v2.904h8.323v3.453h-8.324v3.338h8.804v3.453H65.859zM55.714 15.64H53.06v6.243h-3.91V5.305h6.38q1.372 0 2.447.138a9.7 9.7 0 0 1 2.035.48q.983.342 1.623.914.663.572 1.029 1.487.39.891.389 2.103 0 3.315-3.247 4.574l4.093 6.882h-4.596zM53.06 8.599v3.75h2.584q1.578 0 2.424-.389.846-.411.846-1.486t-.869-1.463q-.846-.412-2.4-.412zM36.532 11.868l6.014-6.563h4.779l-6.128 6.609 6.448 9.969h-4.71l-4.482-6.997-1.921 2.104v4.893h-3.91V5.305h3.91zM4.742.96c2.17-.152 4.084 1.358 4.364 3.444C9.37 6.384 8.015 8.3 5.978 8.75c-.511.112-1.078.08-1.619.15a5.7 5.7 0 0 0-3.378 1.646l-.01.005-.01-.001-.01-.007-.003-.01a.03.03 0 0 1 .006-.02.05.05 0 0 0 .009-.027A538 538 0 0 1 .95 4.905C.955 2.84 2.586 1.112 4.74.96"/><path fill="#b4b4b4" d="M4.97 18.213c-2.762-.022-4.742-2.74-3.78-5.285a4.07 4.07 0 0 1 3.388-2.592c.471-.049 1.038-.036 1.493-.121 2.335-.434 4.139-2.22 4.504-4.494.08-.505.039-1.106.158-1.641.55-2.478 3.39-3.868 5.774-2.748 1.243.585 2.077 1.689 2.283 3.007q.064.406.041 1.005c-.27 7.18-6.402 12.928-13.86 12.869M8.449 19.356a.05.05 0 0 1-.026-.026l-.001-.007.002-.006.004-.006.007-.003q4.251-.972 7.365-3.914.056-.054.102.008c.333.438.68.91.96 1.36a13 13 0 0 1 1.946 6.008q.045.652.029 1.008c-.103 2.095-1.857 3.786-4.067 3.799-1.958.01-3.678-1.325-4.05-3.193-.088-.442-.06-1.055-.136-1.522q-.345-2.157-2.107-3.49a.1.1 0 0 0-.028-.017M4.308 27.516c-1.662-.289-3-1.58-3.298-3.186Q.95 24 .95 23.325l-.002-5.314q0-.026.02-.009c1.087.966 2.23 1.557 3.722 1.655l.4.013c1.943.062 3.589 1.335 3.968 3.185.562 2.735-1.914 5.155-4.75 4.661"/></svg>
